src/root_files/_common/binary-to-deriv/image/deriv_academy.svg

<svg width="48" height="48" viewBox="0 0 48 48" fill="none" xmlns="http://www.w3.org/2000/svg">
<path d="M39 0H9C4.02944 0 0 4.02944 0 9V39C0 43.9706 4.02944 48 9 48H39C43.9706 48 48 43.9706 48 39V9C48 4.02944 43.9706 0 39 0Z" fill="#6950A1"/>
<path d="M33 19.5H15V16.5C15 15.675 15.675 15 16.5 15H31.5C32.325 15 33 15.675 33 16.5V19.5ZM33 31.5V21H15V31.5C15 32.325 15.675 33 16.5 33H31.5C32.325 33 33 32.325 33 31.5Z" fill="white"/>
<path d="M30.75 27H17.25C16.8358 27 16.5 27.3358 16.5 27.75C16.5 28.1642 16.8358 28.5 17.25 28.5H30.75C31.1642 28.5 31.5 28.1642 31.5 27.75C31.5 27.3358 31.1642 27 30.75 27Z" fill="#6950A1"/>
<path d="M30.75 24H17.25C16.8358 24 16.5 24.3358 16.5 24.75C16.5 25.1642 16.8358 25.5 17.25 25.5H30.75C31.1642 25.5 31.5 25.1642 31.5 24.75C31.5 24.3358 31.1642 24 30.75 24Z" fill="#6950A1"/>
<path d="M17.25 18C17.6642 18 18 17.6642 18 17.25C18 16.8358 17.6642 16.5 17.25 16.5C16.8358 16.5 16.5 16.8358 16.5 17.25C16.5 17.6642 16.8358 18 17.25 18Z" fill="#6950A1"/>
<path d="M20.25 18C20.6642 18 21 17.6642 21 17.25C21 16.8358 20.6642 16.5 20.25 16.5C19.8358 16.5 19.5 16.8358 19.5 17.25C19.5 17.6642 19.8358 18 20.25 18Z" fill="#6950A1"/>
</svg>

<svg width="48" height="48" fill="none" xmlns="http://www.w3.org/2000/svg"><path d="M39 0H9a9 9 0 0 0-9 9v30a9 9 0 0 0 9 9h30a9 9 0 0 0 9-9V9a9 9 0 0 0-9-9Z" fill="#6950A1"/><path d="M33 19.5H15v-3c0-.825.675-1.5 1.5-1.5h15c.825 0 1.5.675 1.5 1.5v3Zm0 12V21H15v10.5c0 .825.675 1.5 1.5 1.5h15c.825 0 1.5-.675 1.5-1.5Z" fill="#fff"/><path d="M30.75 27h-13.5a.75.75 0 0 0 0 1.5h13.5a.75.75 0 0 0 0-1.5Zm0-3h-13.5a.75.75 0 0 0 0 1.5h13.5a.75.75 0 0 0 0-1.5Zm-13.5-6a.75.75 0 1 0 0-1.5.75.75 0 0 0 0 1.5Zm3 0a.75.75 0 1 0 0-1.5.75.75 0 0 0 0 1.5Z" fill="#6950A1"/></svg>
